X:472
T:Miss Charlotte Stirling’s Jig. RH.472
T:Lads Of Dunse,aka. RH.472
R:jig
S:Rev.R.Harrison’s MS,c1815,Cumbria
O:England
A:Temple Sowerby,Cumbria
Z:vmp.Simon Wilson. Review PJH, 2008.
M:6/8
L:1/8
Q:3/8=120
K:D
B|AFD DFD|AFA d2B|AFD DFD|EcB A2B|\
AFD DFD|AFA d2A|BdB cec|d2d d2:|!
g|faf d2f|gbg e2g|faf d2f|ecA A2g|\
faf d2f|gbg e2g|fdf ece|d2d d2||!
g|faf d2f|gbg e2g|faf d2f|ecA A2g|\
faf def|gbg efg|faf gec|d2dd2|]

